X:1
T:AVE MARIA
T:Józef GRABOWSKI
T:AVE MARIA
T:(duet na Sopran i Alt)
C:Józef GRABOWSKI
%%score [ 1 2 ] { ( 3 5 ) | 4 }
L:1/8
M:4/4
K:Eb
V:1 treble nm="Soprano"
V:2 treble nm="Alto"
V:3 treble nm="Organo"
V:5 treble 
V:4 bass 
V:1
"^Dolce" z8 | z8 | z8 | z8 | z8 |!mf! B4 G2 z3/2 B/ | (c2 B2) G4 | A4 (AG) (AB) | G4 F2 z2 | %9
w: |||||A- ve, Ma-|ri- * a,|gra- ti- * a *|ple- na,|
 B4 d2 e2 | (B3 c) (B2 G2) | A2 B2 A2 F2 | G4 z4 | B4 G3 B | c2 B2 G4 | c4 e3 c | B4 A4 | %17
w: Do- mi- nus|te- * cum, _|be- ne- dic- ta|Tu|in mu- li-|e- ri- bus,|et be- ne-|dic- tus|
!f!"^-" G6 =A2 |"^-" B6 c2 | d3 d (e3 =A) | B4 z4 | e4 B3 B | (d2 c2) (B2 A2) | G4 B2 A2 | %24
w: fruc- tus|ven- tris|Tu- i Je- *|sus.|San- cta Ma-|ri- * a, _|o- ra pro|
 (F3 A/"^-"G/) F2 z2 | e4 d2 c2 | (c2 e2) (d2 c2) | B3 c A3 B | G2 z2 z4 | G4 c3 G | B4 A4 | %31
w: no- * * bis,|o- ra pro|no- * bis _|pec- ca- to- ri-|bus.|A- ve, Ma-|ri- a,|
 c3 c (fe) (dc) | (=B3 c) d2 z2 | e4 =e3 e | f4 c2 z2 |"^-" (d4 c3) B | e3 c B2 z2 | (=B4 c2 d2) | %38
w: San- cta Ma- * ter *|De- * i,|Do- mi- nus|Te- cum,|be- * ne-|dic- ta Tu|in _ _|
"^-" (f4 e2) d2 | (c2"^-" G4) E2 | D2 z2 z4 | z8 | c4 f3 c | d3 d g2 f2 | (e3 f/"^-"e/) d2!pp! z2 | %45
w: mu- * li-|e- * ri-|bus.||San- cta Ma-|ri- a, Ma- ter|De- * * i,|
 e4 e2 e2 | d4 d2 d2 | c3 c (B2 =A2) | G4 z4 |!f! e4 B3 B | (d2 c2) (B2 A2) | G4 B2 A2 | %52
w: nunc et in|ho- ra, in|ho- ra mor- *|tis.|San- cta Ma-|ri- * a, _|o- ra pro|
 (F3 A/"^-"G/) F2 z2 | e4 d2 c2 | (B2 g2) e3 B | c3 c d4 | e4 z4 | (G2 A2) B3 B | e2 c2 B2 A2 | %59
w: no- * * bis,|o- ra pro|no- * bis in|ho- ra mor-|tis.|In _ ho- ra|mor- tis no- strae,|
 G4 c2 B2 | (A2 G2) F2 G2 |"^rit." B2 A2 G2 ^F2 |"^rit." (G2 =F2) !fermata!E4 |] %63
w: in ho- ra,|in _ ho- ra|mor- tis no- strae.|A- * men.|
V:2
 z8 | z8 | z8 | z8 | z8 |!mf! G4 E2 z3/2 G/ | (A2 G2) E4 | F4 (F=E) (FG) | E4 D2 z2 | G4 B2 c2 | %10
w: |||||A- ve, Ma-|ri- * a,|gra- ti- * a *|ple- na,|Do- mi- nus|
 (G3 A) (G2 E2) | F2 G2 F2 D2 | E4 z4 | G4 E3 G | A2 G2 E4 | A4 c3 A | G4 F4 |!f!"^-" E6 F2 | %18
w: te- * cum, *|be- ne- dic- ta|Tu|in mu- li-|e- ri- bus,|et be- ne-|dic- tus|fruc- tus|
"^-" D6 E2 | F3 F (G3 E) | D4 z4 | z8 | z8 | e4 B3 B | (d2 c2) (B2 A2) | G4 B2 A2 | %26
w: ven- tris|Tu- i Je- *|sus.|||San- cta Ma-|ri- * a, _|o- ra pro|
 (A2 c2) (B2 A2) | G3 A F3 D | E2 z2 z4 | E4 E3 E | G4 F4 | A3 A (AG) (FE) | (D3 E) F2 z2 | %33
w: no- * bis _|pec- ca- to- ri-|bus.|A- ve, Ma-|ri- a,|San- cta Ma- * ter *|De- * i,|
 G4 c3 _B | A4 A2 z2 |"^-" A4- A3 A | G3 G G2 z2 | (F4 E2 F2) |"^-" (A4 G2) F2 | E6"^-" C2 | %40
w: Do- mi- nus|Te- cum,|be- * ne-|dic- ta Tu|in _ _|mu- * li-|e- ri-|
 =B,2 z2 z4 | G4 c3 G | A4 A2 z2 | =B3 B B2 d2 | (c3 d/"^-"c/) =B2!pp! z2 | c4 c2 c2 | _B4 B2 B2 | %47
w: bus.|San- cta Ma-|ri- a,|San- cta Ma- ter|De- * * i,|nunc et in|ho- ra, in|
 =A3 A (G2 ^F2) | G4 z4 | z8 | z8 |!f! e4 B3 B | (d2 c2) (B2 A2) | G4 B2 A2 | (G2 B2) c3 G | %55
w: ho- ra mor- *|tis.|||San- cta Ma-|ri- * a, _|o- ra pro|no- * bis in|
 A3 A A4 | G4 z4 | (E2 F2) G3 G | G2 A2 G2 F2 | E4 =E2 G2 | (F2 E2) D2 _D2 | C3 _C B,2 =A,2 | %62
w: ho- ra mor-|tis.|In _ ho- ra|mor- tis no- strae,|in ho- ra|in _ ho- ra|mor- tis no- strae.|
"^rit." (B,2 _A,2) !fermata!G,4 |] %63
w: A- * men.|
V:3
!mf!"^Dolce" [GBe]4 [GB]3 [EG] | [DBd]2 [CAc]2 [B,GB]2 [A,FA]2 | [EG]4 (B2 A2) | %3
 [B,EG]4 !fermata!G2 F2 | [G,E]2 [B,EG]2 [G,E]2 [B,EG]2 | z2 [B,EG]2 z2 [B,EG]2 | %6
 z2 [G,B,E]2 z2 [G,B,E]2 | z2 [B,DA]2 z2 [B,DA]2 | z2 [B,EG]2 [B,DF]2 z2 | z2 [G,B,E]2 z2 [A,CE]2 | %10
 z2 [G,B,E]2 z2 [B,EG]2 | z2 [B,DA]2 z2 [B,DA]2 | z2 [G,EG]2 [A,FA]2 [=A,^F=A]2 | %13
 [B,GB]2 [B,EG]2 z2 [B,EG]2 | z2 [G,B,E]2 z2 [G,B,E]2 | z2 [CEA]2 z2 [CEA]2 | %16
 z2 [B,EG]2 z2 [B,DA]2 | z2 [B,EG]2 z2 [=A,CEF]2 | z2 [B,DF]2 z2 [=A,CEF]2 | [B,DF]2 z2 z4 | z8 | %21
 [G,B,E]2 [G,B,E]2 [G,B,E]2 [G,B,E]2 | [B,DA]2 [B,DA]2 [B,DA]2 [B,DA]2 | %23
 [B,EG]2 [B,EG]2 [CFB]2 [CFA]2 | [B,DA]2 [B,DA]2 [B,DA]2 [B,DA]2 | z2 [B,EG]2 z2 [CEA]2 | %26
 [CEA]2 [Ec]2 [DB]2 [CA]2 | [B,G]2 [G,E]2 [A,F]2 [F,D]2 | [G,E]3 =B, C2 G,2 | %29
 z2 [G,CE]2 z2 [G,CE]2 | z2 [A,CF]2 z2 [A,CF]2 | z2 [CFA]2 z2 [CFA]2 | z2 [=B,DG]2 z2 [G,B,G]2 | %33
 [CEG][CEG][CEG][CEG] [C=EG][CEG][CEG][B,CEG] | %34
 [A,CFA][A,CFA][A,CFA][A,CF] [A,CF][A,CF][A,CF][A,CF] | %35
 [A,DF][A,DF][A,DF][A,DF] [A,CF][A,CF][A,B,F][A,B,F] | %36
 [G,B,E][G,B,EG][G,B,EG][G,B,EG] [G,B,E][G,B,E][G,B,E][G,B,E] | %37
 [G,=B,F][G,B,F][G,B,F][G,B,F] [G,CG][G,CG][A,CF][A,CF] | %38
 [CFA][CFA][CFA][CFA] [CGc][CGc][CFAc][CFA] | [CEG][CEG][CEG][CEG] [CEG][CEG][CEG][CEG] | %40
 [=B,D]2 z2 z4 | z2 [G,CE]2 z2 [G,CE]2 | z2 [A,CF]2 z2 [A,CF]2 | z2 [G,=B,F]2 z2 [G,B,F]2 | %44
 [G,CE]2 z2 [=B,D]2 z2 |!pp! [Gce]2 [Gce]2 [Gce]2 [Gce]2 | [GBd]2 [GBd]2 [GBd]2 [GBd]2 | %47
 [=Ac]2 [Ac]2 [GB]2 [^FA]2 | G2 z2!mf! [B,D_A]2 !fermata!z2 | [G,B,E]2 [G,B,E]2 [G,B,E]2 [G,B,E]2 | %50
 [B,DA]2 [B,DA]2 [B,DA]2 [B,DA]2 | [B,EG]2 [B,EG]2 [CFB]2 [CFA]2 | %52
 [B,DA]2 [B,DA]2 [B,DA]2 [B,DA]2 | z2 [B,EG]2 z2 [CEA]2 | [B,EG]2 [GB]2 [Ec]3 [GB] | %55
 [Ac]3 [Ac] [Ad]4 | [Ge]4 z4 | z8 | z8 | z8 | z8 | z8 | z8 |] %63
V:4
 E,4 E,4 | A,,4 A,,4 | E,4 A,,4 | B,,4 !fermata!B,,4 | [E,,E,]2 z2 [E,,E,]2 z2 | %5
 [E,,E,]2 z2 [E,,E,]2 z2 | [E,,E,]2 z2 [E,,E,]2 z2 | B,,2 z2 B,,2 z2 | E,2 z2 B,,>A,,G,,>F,, | %9
 E,,2 z2 A,,2 z2 | B,,2 z2 E,,2 z2 | B,,2 z2 F,2 B,,2 | [E,,E,]2 z2 z4 | [E,,E,]2 z2 [E,,E,]2 z2 | %14
 [E,,E,]2 z2 [E,,E,]2 z2 | A,,2 z2 A,,2 z2 | B,,2 z2 B,,2 z2 |!f! E,2 z2 F,,2 z2 | %18
 B,,2 z2 F,,2 z2 | B,,2 z2 z4 | [B,,B,]2 [A,,A,]2 [G,,G,]2 [F,,F,]2 | [E,,E,]2 z2 [E,,E,]2 z2 | %22
 [B,,,B,,]2 z2 [B,,,B,,]2 z2 | [E,,E,]2 z2 A,,2 z2 | B,,2 z2 B,,2 z2 | [E,,E,]2 z2 A,,2 z2 | %26
 A,,2 z2 z4 | B,,2 z2 B,,2 z2 | E,3 =B,, C,2 G,,2 | [C,,C,]2 z2 [C,,C,]2 z2 | F,,2 z2 F,2 z2 | %31
 F,2 z2 F,,2 z2 | G,,2 z2 G,,2 z2 | [C,,C,]2 z2 [C,,C,]2 z2 | [F,,F,]2 z2 F,,2 z2 | %35
 [B,,,B,,]2 z2 B,,2 z2 | E,,2 z2 E,2 z2 | D,4 E,2 F,2 | [F,,F,]4 [E,,E,]2 [F,,F,]2 | %39
 [G,,G,]2 [E,,E,]4 [C,,C,]2 | G,,4 F,,2 D,,2 | C,,2 z2 C,2 z2 | F,,2 z2 F,2 z2 | G,,2 z2 G,,2 z2 | %44
 [C,,C,]2 z2 G,2 z2 | [C,C]2 [B,,B,][=A,,=A,] [G,,G,]2 [C,C]2 | %46
 [B,,B,]2 [=A,,=A,][G,,G,] [D,,D,]2 [G,,G,]2 | [E,,E,]2 [D,,D,][C,,C,] [^C,,^C,]2 [D,,D,]2 | %48
 [G,,G,]2 z2 [F,,F,]2 !fermata!z2 |!f! [E,,E,]2 z2 [E,,E,]2 z2 | [B,,,B,,]2 z2 [B,,,B,,]2 z2 | %51
 [E,,E,]2 z2 A,,2 z2 | B,,2 z2 B,,2 z2 | [E,,E,]2 z2 A,,2 z2 | E,2 z2 z4 | [A,,A,]2 z2 [B,,B,-]4 | %56
 [E,B,]4 z4 | z8 | z8 | z8 | z8 | z8 | z8 |] %63
V:5
 x8 | x8 | (G,2 B,2) [CF]4 | x4 [A,D]4 | x8 | x8 | x8 | x8 | x8 | x8 | x8 | x8 | x8 | x8 | x8 | %15
 x8 | x8 | x8 | x8 | x8 | x8 | x8 | x8 | x8 | x8 | x8 | x8 | x8 | x8 | x8 | x8 | x8 | x8 | x8 | %34
 x8 | x8 | x8 | x8 | x8 | x8 | x8 | x8 | x8 | x8 | x8 | x8 | x8 | x8 | x8 | x8 | x8 | x8 | x8 | %53
 x8 | x8 | x8 | x8 | x8 | x8 | x8 | x8 | x8 | x8 |] %63

